X:1
T:Suite for Three Violins
T:Op. 133
T:Emanuel Moór
%%score 1 ( 2 3 ) ( 4 5 )
L:1/8
Q:1/4=90
M:4/4
K:Bb
V:1 treble nm="Violin 1" snm="Vln. 1"
V:2 treble nm="Violin 2" snm="Vln. 2"
V:3 treble 
V:4 treble nm="Violin 3" snm="Vln. 3"
V:5 treble 
V:1
"^I"!f!"^Andante espressivo" !tenuto![G,DBg]2 !tenuto!G2 !tenuto![G,DBg]2 (ba) | %1
 !tenuto![G,DBg]2 !tenuto!G2 !tenuto![Ge]2 (fe | d)(^fgd) ([Ec]2 B2) | %3
 [CA]!>(!(BcB) [CA]2 (G^F)!>)! |!p! !tenuto!G2 !tenuto!G,2 !tenuto!G2 (BA) | %5
!<(! (GAB=B)!>(! (c2 _B2)!<)!!>)! | (ef _g2) (_d2 c2) | (c2 F2) (B2 c2) | %8
 (d2 Bd) (!tenuto!f2 !tenuto!f2) | (^f2 d=e f2) !tenuto!f2 | !tenuto!g2 (G2 g2) (ba | %11
 gf)(ed cB)(eG) | (ABcd ea)(bc') | (d'e')(d'g d'e')(d'g) | (_d'e')(d'_d) (_a4- | %15
 a=a)(^f=e ^d)(^A^B^G) |!pp! ^c2 ^C2 (c2 =e^d) |"^cresc." (^c^d)(=ed e^f)(^ga) | %18
 (^g^c')(^f=e ^df)(^A^B) | (^c^C)(c^d =e=E)(e^f | gf)(=eb gf)(e^c') |!ff! d'2 (d2 d'2) (f'=e' | %22
 d'2) (d2 c'2) c2 | (=b2 =B2) (_b2 _B2) | (a2 A2) (agab) | (g2 B2) (g2 b2) | %26
 (f2 B2)!<(! (f2 bc')!<)! | (d'2 d2) (d'2 f'=e') | d'8 | c'8 | %30
!>(! (3(ff'g) (3(af'b) (3(c'f'd') (3(=e'ff')!>)! |!p! (3(^f'^c'f') (3(c'ac') (3(a^fa) (3(f^c=f- | %32
 (3f)(c^f (3gdg) (3(dGB) (3(GG,G) |!pp! (3(^G^G,)G- (3G(G,G- (3G)(G,G- (3G)(G,G) | %34
 (3(AA,)A- (3A(A,A- (3A)(A,A- (3A)(A,A) | (3(BB,B- (3B)B,(B (3=B)(=B,G- (3G)(B,B- | %36
"^cresc" (3B)(=B,G) (3(^G^DG) (3(=e=Ee) (3(^dDd) | (3(^c^Cc) (3(^d^Dd) (3(^e^Ee) (3(^^f^^Ff) | %38
!f! (3(^g^G)(g- (3gG)(g- (3gG)(g- (3gG)g- | (3g(^G^g- (3g)(=b^a (3g^f)(=e (3^d^ce) | %40
 (3^d^D(d- (3d=ed) (3(^c=B^A (3^G^^FG) |!pp! (3=E!>(!EE z2!>(! (3EEE z2!>)!!>)! | z8 | %43
 z2 (^C2 =E2 A2) | [A^c]4 [Ac]4 | [B^c]4 [Bc]4 | [^G=B]4 [GB]4 | [A^f]4 [Af]4 | [Bc]4 [Bc]4 | %49
!<(! T^f4 Tf3 g!<)! |!p! !tenuto!g2 (G2 g2) (ba) | g2 (G2 e2 fe) | (d^fgd) (c2 B2) | %53
 (ABcB) (A2 G^F) | G2 (G2 B2) B2 | [GB]2!<(! ([GB][Ac] [Bd]2) (d2!<)! |!<(! g2) g4 g2-!<)! | %57
 g2 (g2 ^f2) f2 |!pp! g2 (g2 b2) (b2 | g2) (ga b2) ^f2 | g4 g4- |"^Rit." g4 g4 | %62
!ppp! !fermata!g8 |][M:4/4]"^II"[Q:1/4=120]"^Allegro" z8 | z8 | z8 | z8 | z8 | z8 | z8 | z8 | z8 | %72
 z8 | z8 |!f! ffaf c'fbd' | c'f'- f'/c'/d'/c'/ b/g/a/=e/ f/a/b/d'/ | %76
 c'f'- f'/c'/d'/c'/ b/g/a/=e/ f/a/b/d'/ | c'/d'/e'/d'/ c'/e'/=e'/f'/ _g'/f'/_e'/_d'/ c'/b/_a/_g/ | %78
 f/_a/g/=e/ f/a/b/c'/ _d'/c'/b/a/ _g/f/_e/_d/ | e/_d/B/_G/ _A/c/e/f/ _g/f/d/B/ c/e/g/_a/ | %80
 b/_a/_g/f/ e/f/g/B/ c/_d/e/c/ _A/_G/F/E/ | _DD!>!FD _AD!>!_GB | E4 z2 E_G | (=E6 ^D2) | %84
 !>!=E=e!>!=B^c !>!^GA!>!B=B, | =E/E/E/^F/ G/G/G/E/ c/c/c/=B/ A/A/A/G/ | %86
 F/G/A/B/!<(! =B/c/^c/d/!>(! e/d/=c/_B/ A/G/F/E/!<)!!>)! | E z z2 z4 | D2 z2 z2 DD/=E/ | %89
 ^FA- A/C/D/G/ Ee- e/G/_A/c/ | F(fgf) (efg)!tenuto!a |!ff! b2 z2 z4 | z2 z2 f2 z2 | z2 z2 f2 z2 | %94
 f4 G4 | c/d/e/f/ g/a/b/=b/ c'/g/a/=e/!<(! f/g/^g/a/!<)! | !>!bbd'b fbdf | BfdB fdBf | BgeB geBg | %99
 B(_ac)(a d)(ae)(a | f)(_af)(b c')(f^c'd') | !trill(!Te'8- | e'8 | Te'8 | Te'8 | %105
{d'e'} _a z z2 a/c'/a/e/ c/_A/E/C/ | =B,/^C/^D/=E/ F/^G/^A/=B/ D2 z2 | %107
 g/^f/=e/d/ ^c/d/e/f/ g/f/e/f/ g/a/=b/^c'/ | d'2 z2 z2 d'2- | d'4 d'4 | d'2 z2 z4 | %111
!ff! =b!>!=e'- e'/b/g/=e/ =B/e/G/B/ e/g/b/e'/ | =e' z c' z g z c z | [G=e] z z2 z4 | %114
 =EC!>(!GC G,CGc!>)! |!p! (B,4 _A,4) | z2 _D2 z2 ^C2 | !>!dd!>!^fd !>!ad!>!fa | %118
 b_dgb b/c'/_d'/b/ g/e/=d/_d/ |!f! c2 z2 z4 | _A,4 z4 | e _a2 c'2 e'2 a | =a c'2 e2 (c'2 e') | %123
 e'/c'/a/f/ e/c/A/F/ E/F/G/D/ E/F/G/A/ | B2 z2 z4 |!p! f z f6- | f z f6- | f z z2 z4 | %128
 z2!p! (e'd') (c'4 | d'2 _d'2) c'4 | d' z z2 z2 e z |!ff! bbd'b ggbg | fbfd efga | bd'ba gabg | %134
 fbfd efga | b/b/d'/b/ c'/d'/e'/=e'/ f'/d'/b/f/ d/B/F/B/ | d/F/G/A/ B/c/d/e/ f/B/c/d/ e/f/g/a/ | %137
 b z _GE F z D z |!ff! !fermata!B,8 || %139
[K:Eb][M:4/4]"^III"[Q:1/4=72]"^Adagio espressivo"!p! (E2 G2 A2 Bc) | (B2 =e2 f2 dB) | %141
 (A2 e2) (f2 ga) | (a2 fg) (g2 d2) |!<(! (e4- e!>(!fgc)!<)!!>)! | (e2 B2) (b4- | b2 c'2) (g2 a2) | %146
 b4!>(! b4-!>)! | b4 z4 |!<(! (e2 _dg!>(! a2 fd)!<)!!>)! | c2 g2!<(! c'4-!<)! | %150
 c'(_d'!<(!c'=e' f'2 e'2)!<)! | (d'2 c'2- c')(a =b2) | (g2 g'2- g'e'c'g) | (_g2 _g'2- g'e'_c'g) | %154
 (_g2 f2- f2) (=ga) | [dg]4 (a2 bc') | (b=e' f'2 d'2 b2) | (a2 e'2) (f'2 g'a') | %158
 (a'2 f'g') (g'2 g2) | (g=a b2) b4- | b2 (=ag) ^c'4 | (d'2 a>b) b4- | b2 (g>f) (e2 f2) | %163
 (f2 e>d) (b2 =b2) |!<(! (d4!>(! ^c4)!<)!!>)! |!pp! (A2 d2) (^c>d) T=e2 | %166
{d=e} (3(fg=a (3^gf^c) (3(df_a (3=gfc) | (3(df=e (3fg=a) (3(ac'b (3abc') | %168
 (f2 b2) (3=a(ab)"^" Tc'2 |{bc'} (3(_d'f'e' (3f'd'c') (3(bc'd' d'>e) | (e2 _g2) (e2 _f2) | %171
 (=e2 g2 e2 f2) | (3(b=ag) (^c'>d' f'd')(=e'c') | =c'4 (3(^c'c'd') T=e'2 | %174
!pp!{d'=e'} (3(f'g'=a' (3^g'f'^c') (3(d'f'a' (3g'f'c') | (3(d'f'=e' (3d'=af) (3(dDc (3BD=A) | %176
 _A4 (3(fdB) A2 |!<(!{GA} (3G(GA (3B)(cd (3efg) (3(gab)!<)! | (3(aga) (3(ab_c') (3(fef (3_g=ga) | %179
 (_g2 e>g) (f2 e2) | e'2 Tb2{=ab} (c'b_ag) | (fgab[Q:1/4=72]"^Poco Rall." =bc')(cd) | %182
[Q:1/4=72]"^Tempo I" (e2 g2 a2 bc') | (b=e' f'2 d'2 b2) | (a2 e'2 f'2 g'a') | (a'2 f'g') (g'2 b2) | %186
 (e'4- e'f'g'c') | (e'2 b2) (b4- | b2 c'2) (g2 f2) |!<(! (e2 G2 A2 c2)!<)! | B4!<(! B4!<)! | %191
 B4 _G2 A2 |!>(! B4 B,4!>)! |!pp! (E2 G2 A2 Bc) | (c2 B2) (e2 E2) | (c2 B2 e2 gb) | %196
 (c'2 c2) (b2 a2) |!pp! e'8 | !fermata!e'8 || %199
[K:G][M:3/4]"^IV"!f![Q:1/4=158]"^Allegro Vivace" g3 d d2 | B3 G G2 | cB AG FE |!<(! D2 G2 A2!<)! | %203
!>(! B2 G2 E2!>)! | !>!^CC C4 | !>!AA A4 |!p! DE FG F z | A^c de f z | B z e z f z | ge fd ^cB | %210
 A^c df ^ga | bd fB df | ed B^c F^G | A2 z2 A,2 | B, z D z ^C z | B, z A, z A z |!<(! Td6!<)! | %217
 Td6 | g'3 d' d'2 | b3 g g2 | c'b ag fe | d2 g2 a2 | b2 g2 e2 | ^cc c4 | aa a4 | d_e fa fd | %226
 cc c4 | _bb b4 | fg ab gd | _ee e4 | c'c' c'4 | e=f ac' af |!pp! _b z d' z b z | =f z d z f z | %234
 _BB d z B z | _e z _B z G z | _E z G z E z | G,_E GB cd | _ed c_B AG | FG A_B cd | _ef ^g=g ^ga | %241
 _b2 z4 | z6 | z6 | B,B, B,2 z2 | z6 | z2 z2"^pizz." G,2 | z2 C2 _E2 | z2 G2 c2 | z2 _A,2 z2 | %250
"^arco" G,G, (G,4 | G,)G, G,4 | z6 | z2 _A, z _A z | G,G, G,4- | G,2 z4 | z6 | DD D2 z2 | %258
 F2 _B2 c2 |!>(! d2 _B2 G2!>)! |!>(! _EE E4!>)! | cc c4 | DE FG A_B | G=F _EG AB | [G,_Ec]2 z4 | %265
 z6 | z6 | z6 | z6 | z6 | z6 | z6 |!f! C2 z4 | D2 z4 | _E2 z4 | _D2 z4 | _G=F G_D GF | E^D EB, ED | %278
 D^C DA, B,C | DE FG AD | _D2 z2 _E2 | _A2 z2 GA | =F2 z4 | _d2 z4 | _AG A_E AG | =F_E _DE FG | %286
 _AG A_E _dc | _B_A Gc _d_e | c_e _ae ce | _a_e ce ag | _g_c' g_e _c_G | _E_G E_C _B,A, | %292
 !>!_A,6- | A,6 |!p! G,6- | G,6 | F3 D D2 | d3 A A2 | d2 G2 d2- | d2 G2 B2 | E2 z2 G2- | G2 z4 | %302
 G2 z2 [GA]2 |!ff! A2 z4 | z6 | D2 F2 A2 | d2 fa d'2 | _e'2 _b2 g2 | _e2 _B2 G2 | _E2 G2 _B2 | %310
 _e2 =f^f g2 | _ag a_e ag | =fe f_A f_e | _dc _Bc d_e | =f^f g_e _a_b | c'4 z2 | b4 z2 | _b4 z2 | %318
 a4 z2 | A4 z2 | BG DB, DG | BG EB, EG | cA EC EA | cA =FC FA | _eA CA ce | f_e cA =e=f | %326
 f_e cA =e=f |!ff! !trill(!T^f6- | ^f6 | g3 d d2 | B3 G G2 | cB AB cd | ed cd ef | gf ef gb | %334
 c'a fd' e'f' | (g'2 d'2) (b2 | g2) (d2 b2) | (c'2 e'2) [DAf]2 |!ff! !fermata![G,DBg]6 |] %339
V:2
!f! [GB]6 z2 | [GB]4!p! (C2 [A,^F]2) | [B,G]4 (^F2 G=F) | E2 z2 (E2 C2) |!p! B,2 z2 B,2 z2 | %5
!<(! G4!>(! G4!<)!!>)! | [_GB]4 [EG]2 [EF]2 | [CE]4 [EF]4 | [DF]4 z4 | [Dc]4 [Dc]4 | [DB]4 z4 | %11
 z8 | (_G4 F4) | B,4 B,4 | (F2!<(! _F4) F2!<)! | [Ec]2 z2 z4 | z!pp! ^C/=E/ ^G2 z C/^F/ A2 | %17
"^cresc." (=E^F)(^GF GA)(EF) | =E2 A^G (^F^D)(G^G,) | !tenuto!^C2 !tenuto!C2 !tenuto!C2 ^c2- | %20
 c4 z2 A2 |!ff! d4 (b4 | a4)!<(! (_a4-!<)! |!>(! a4 g4)!>)! | g4 (f2 d2) | (B2 G2) e4 | %26
 (e4 d2)!<(! (Bc)!<)! | [Af]4 a4 | (ag)(ba gf)(=ed) | (3(cc'd) (3(=ec'f) (3(gc'b) (3(ac'g) | %30
 (AB)!<(!(cG) (AB)(GA)!<)! |!p! [A^c]6 z2 | d z [Bd] z z4 | z4!pp! ^D4 | z4 F4 | (_G4 =G4) | %36
"^cresc." ^G4 (^c2 =B2) | (^A2 =B2) (^cA) T^d2 |!f!{^^c^d} [^D=B^g]2 z2 [=E^c]2 z2 | %39
 [^D=B^g]2 z2 z4 | =B2 z2 ^G2 (3(^D^CD) | z2!pp! (3^B,!>(!B,B, z2!>(! (3^G,G,G,!>)!!>)! | !>!A,8- | %43
 (3A,A,A,- (3A,A,A,- (3A,A,A,- (3A,A,A,- | (3A,A,A,- (3A,A,A,- (3A,A,A,- (3A,A,A, | %45
 (3G,G,G, G,2- (3G,G,G, G,2 | (3DDD- (3DDD- (3DDD- (3DDD | (3CCC- (3CCC- (3CCC- (3CCC | %48
 (3DDD- (3DDD- (3DDD- (3DDD | D4!<(! TA3 B!<)! | [G,DB] z z2 z4 | z2"^pizz." G,2 z2 G,2 | %52
 z4"^arco" G4 | z4 (E2 D2) | z2 G6 | G6 (3(_ABA) |!<(! (3(G_A=A) (3(Bc^c) (3(ded) (3(f=e_e)!<)! | %57
 (3(dcd (3Bcd) (3(ded (3cBA) |!pp! G2 (G2 B2) (B2 | G2) (GA B2) (^F2 | G4)!<(! G4-!<)! | %61
 G4!<(! [GB]4!<)! |!ppp! !fermata!B8 |][M:4/4] z8 | z8 | z8 | z8 | z8 | z8 |!pp! ._d.d.fd _ad_gb | %70
 ._a_d'- d'/a/b/a/ _g/e/f/c/ d/f/g/b/ | _a_d'- d'/a/b/a/ _g/e/f/c/ d/f/g/b/ | %72
 _a/_g/f/e/ _d/e/f/A/ d/d/d/A/ f/f/f/d/ | A/A/A/^c/ =e/e/e/c/ A/A/A/c/ e/e/e/c/ | %74
!f! =c/=e/d/^c/ =c^c/d/ e/g/=c/e/ f/e/d/e/ | c/B/A/G/ F/G/A/G/ F/D/=E/B,/ C/E/F/E/ | %76
 F/B/A/G/ F/G/A/G/ F/D/=E/B,/ C/E/F/E/ | F2 F2 F2 _GE/G/ | _A/c/B/G/ A/c/_d/e/ f/e/d/f/ e/d/B/A/ | %79
 B/_A/F/_D/ E/_G/B/c/ _d/c/A/F/ G/B/d/e/ | f/e/_d/c/ B/c/d/F/ _G/_A/B/G/ E/C/_D/C/ | %81
 B,2 _A,2 z2 _D_G | EE!>!_GE BE!>!G_c | !>!=E=e!>!=B^c !>!^GA!>!B=B, | (=E6 ^D2) | =E4 E4 | %86
 EE/F/!<(! ^F/G/B/A/!>(! B/A/G/=F/ E/D/B,/C/!<)!!>)! | !>!DD!>!^FD !>!AD!>!GB | %88
 A!>!d- d/A/B/A/ G/=E/^F/^C/ D/F/G/B/ | Ad- d/^F/G/B/ B,B- B/_D/E/_A/ | F(ded) (cde)!tenuto!c | %91
!ff! [Fd]2 z2 z4 | z2 z2 F2 z2 | z2 z2 F2 z2 | F4 G,4 | %95
 E/G/c/d/ e/c/_d/=d/ e/d/c/G/!<(! A/B/=B/c/!<)! | !>!ddfd BdFB | DBFD BFDB | GeBG eBGe | %99
 (_A2 G2 F2 E2) | D2 z2 z4 | eege bege | b(_de)(d g)(eb)d | c(e_ac') B(_d_Ad) | %104
 G/_A/B/c/ _d/=d/e/f/ g/_a/b/c'/ _d'/f'/e'/g'/ | _a' z z2 z4 | ^D z z2 ^F/^G/^A/=B/ ^c/^d/=e/^f/ | %107
 =e/d/^c/=B/ A/B/c/d/ e/d/c/d/ e/f/g/e/ | d2 z2 z2 ^f2- | f4 ^f4 | [G,D=Bg]2 z2 z4 |!ff! =E4 z4 | %112
 CC=EC GCFA | Gc- c/G/A/G/ F/D/=E/=B,/ C/E/F/A/ | Gc- c/!>(!=E/G/c/ =ec- c/G/c/e/!>)! |!p! c4 c4 | %116
 _d/_A/d/A/ F/d/f/_a/ =a/^f/^c'/a/ f/^c/f/a/ | d'2 z2 D2 z2 | _D2 z2 [B_d]2 z2 | %119
!f! _AAc!<(!A eA_df!<)! | e_a- a/e/f/e/ _d/B/c/G/ _A/c/d/f/ | !>!e4 !>!_A4 | !>!c4 !>!=A4 | %123
 f2 z2 z4 | B,2 z2 z4 |!p! d z (d2 e2 dc) | d z (d2 e2 dc) | %127
 d/e/c/d/ e/f/g/e/ d/e/f/g/ _a/b/_c'/a/ | g z (c'2 b4- | b4) b4 | b z z2 z2 F z | %131
!ff! [Fd]2 bf eege- | efdB- Bcde | fbfd BBee- | efdB- Bcde | f6 z2 | %136
 z2 G/A/B/c/ d/G/A/B/ c/d/e/c/ | [Fd] z _GE F z D z |!ff! !fermata!B,8 ||[K:Eb][M:4/4]!p! (E4 F4) | %140
 F4 F4 | A4 A4 | (A4 G4) | (G2 AG) F4 | [B,E]4 (c2 d2 | e4) e4 | [ef]4 [_df]4 | [_d_g]4 z4 | %148
 A4 A4 | G4!<(! (d2 =e2)!<)! | f4 f4 | a4 d4 |!pp! [Gc]4 z4 | [_G_c]4 z4 | d4 d4 | (e2 d_d) [cf]4 | %156
 f4 f4 | a4 a4- | a4 g4 | [^c=e]4 ([ce]2 [df]2) | (g2 f=e) (=a2 b2) | (=a4 g4) | %162
 [=eg]2 (B>A) ([GB]2 [FA]2) | (B4 d4) |!<(!!>(! =A8!<)!!>)! |!pp! (F2 =A2) (3GGA B2 | %166
 (3(d=ef (3e=B_B) (3(Adf (3e=B_B) | (=Ad) (3(d=ef) _g4 | d2 f2 ez/f/ _g2 | f4 f2 (e_d) | %170
 c4 (c2 _d2) | [G^c]4 ([Gc]2 [Fd]2) | [=Ed]2 g2 (bf)(g=e) | [=Af]4 (3[=eg](ed) [^cg]2 | %174
!pp! (3(d=ef (3dfe) (3(f=af (3dfe) | f4 z4 | (3B,(B,C) TD2{CD} D2 D2 | (3(FEF (3GAF) (3GAB _d2 | %178
 (ce) d2 (3(dcd (3e=ef) | (e2 _c>e) A4 | (3(GgG) Tg2{^fg} e4- | e4 (a2 A2) | (G2 B2 e4) | f4 f4 | %184
 a4 a4 | b4 (b2 g2) | (g2 ag) (f4 | e4) (e2 d2) | [Ec]4 (B2 A2) |!<(! G2 [B,_D]2 [CE]2 [=DF]2!<)! | %190
 G4!<(! G4!<)! | _G4 G4 |!>(! F4 z4!>)! | z4!pp! (F4 | _F4) E4 |!>(! E4 z4!>)! | E4 (c2 d2) | %197
!pp! [Bg]4 [Bg]4 | !fermata![Bg]8 ||[K:G][M:3/4]!f! B2 z4 | z6 | z6 | z6 | z6 | z6 | z6 | %206
!p! d3 A A2 | F3 D D2 | GF ED ^CB, | A,2 D2 E2 | F2 D2 B,2 | !>!^G,G, G,4 | !>!EE E4 | %213
 A,B, ^CD EF | GA B z A z | G2 F2 E2 |!<(! D2 !^!D2 !^!^C2!<)! | !^!C2 !^!B,2 !^!A,2 | G,6- | G,6 | %220
 A,6 | Fc Be cf | gd Bd GB | A^G =GF ED | ^CD EF GA | FG Ac AF | GA _BG AB | c^c g_B cg | %228
 A_B cd BG | _Bd c=B c_B | Ac _ec de | _Bc _eg ec |!pp! =fd _B=F Bd | c_B AB c_e | =FF F4 | _E6 | %236
 _E6 | z2 G2 z2 | z2 _ED CE | A,_B, CD _E=F | G_A =A_B =Bc | _B2 d2 B2 | =F2 D2 F2 | %243
!<(! _B,D _E=E FG!<)! | _AG =F_E DC |!<(! B,D =FG _A_B!<)! |!>(! B_A G=F _ED!>)! | C2 z4 | z6 | %249
 z6 | z6 | z6 | z2 =F z C z | z6 | z6 | g3 d d2 | _B3 G G2 | _ed c_B AG | z6 |"^" TD6 | %260
 D2 C2 _B,2 | A,2 _B,2 C2 | DD D4- | D2 D2 D2 | [G,_Ec]2 z4 |!f! C z _E z G z | =FG _Ac B=A | %267
 _AG =F_E DC | B,2 G2 _E2 | =F2 C2 _E2 | D2 D2 B,2 | _A2 z2 G=F | _E2 z4 | =F2 z4 | C2 z4 | %275
 _B,2 z4 | z6 | B,2 z4 | A2 z4 | z6 | _ed e_B ed | _dc d_A dc | _Bc _d_e =e=f | _dc _Bg _a_b | %284
 c'2 z4 | _B,2 z4 | C2 z2 =F_E | =F2 z2 _E2 | _Ac _ec Ac | _ec _A_B c_d | _e_g e_c _G_E | _C2 z4 | %292
 _a3 _e e2 | c3 _A A2 |!p! A^c eA ce | ae ae a^c' | d'2 z4 | z6 | b2 ga b2- | b2 ef g2- | %300
 g2 ^cd e2- | e!<(!^c AB cd!<)! | ef ga b^c' |!ff! d'2 a2 f2 | d2 A2 F2 | DD D4- | D6 | [_EG]6- | %308
 [EG]6 | _EE E4- | E6 | _E2 z4 | =F2 z4 | _A2 z4 | _d2 z4 | _ag a_e ag | fe f^d Bd | =fe f_B df | %318
 e^d e^c Ac | d^c dA dc | D2 z4 | G2 z4 | [Ec]2 z4 | A2 z4 | [Ac]2 z4 | [cd]2 z4 | [cd]2 z4 | %327
!ff! _ed ed c_B | Ac _BA GG | [G,DB]2 z4 | G3 D D2 | ED CD EF | GF EF GA | BA GA Bd | ec Af ga | %335
 (b2 g2) (d2 | B2) (G2 d2) | g4 [DAf]2 |!ff! !fermata![G,DBg]6 |] %339
V:3
 x8 | x8 | x8 | x8 | x8 | x8 | x8 | x8 | x8 | x8 | x8 | x8 | x8 | x8 | x8 | x8 | x8 | x8 | x8 | %19
 x8 | x8 | x8 | x8 | x8 | x8 | x8 | x8 | x8 | x8 | x8 | x8 | x8 | x8 | x8 | x8 | x8 | x8 | x8 | %38
 x8 | x8 | x8 | x8 | x8 | x8 | x8 | x8 | x8 | x8 | x8 | x8 | x8 | x8 | x8 | x8 | x8 | x8 | x8 | %57
 x8 | x8 | x8 | x8 | x8 | x8 |][M:4/4] x8 | x8 | x8 | x8 | x8 | x8 | x8 | x8 | x8 | x8 | x8 | x8 | %75
 x8 | x8 | x8 | x8 | x8 | x8 | x8 | x8 | x8 | x8 | x8 | x8 | x8 | x8 | x8 | x8 | x8 | x8 | x8 | %94
 x8 | x8 | x8 | x8 | x8 | x8 | x8 | x8 | x8 | x8 | x8 | x8 | x8 | x8 | x8 | x8 | x8 | x8 | x8 | %113
 x8 | x8 | x8 | x8 | x8 | x8 | x8 | x8 | x8 | x8 | x8 | x8 | x8 | x8 | x8 | x8 | x8 | x8 | x8 | %132
 x8 | x8 | x8 | x8 | x8 | x8 | x8 ||[K:Eb][M:4/4] x8 | x8 | x8 | x8 | x8 | x8 | x2 x2 (B2 c2) | %146
 x8 | x8 | x8 | x8 | x8 | (f2 e2) x4 | x8 | x8 | x8 | x8 | x8 | x8 | x8 | x8 | x8 | x8 | x8 | x8 | %164
 x8 | x8 | x8 | x8 | x8 | x2 x2 (3_dcB B2 | x8 | x8 | x2 =e>d x4 | x8 | x8 | x8 | x8 | x8 | x8 | %179
 x8 | x8 | x8 | x8 | x8 | x8 | x8 | x8 | x8 | x8 | x8 | x8 | x8 | x8 | x8 | x8 | x8 | x8 | x8 | %198
 x8 ||[K:G][M:3/4] x6 | x6 | x6 | x6 | x6 | x6 | x6 | x6 | x6 | x6 | x6 | x6 | x6 | x6 | x6 | x6 | %215
 x6 | x6 | x6 | x6 | x6 | x6 | x6 | x6 | x6 | x6 | x6 | x6 | x6 | x6 | x6 | x6 | x6 | x6 | x6 | %234
 x6 | x6 | x6 | x6 | x6 | x6 | x6 | x6 | x6 | x6 | x6 | x6 | x6 | x6 | x6 | x6 | x6 | x6 | x6 | %253
 x6 | x6 | x6 | x6 | x6 | x6 | x6 | x6 | x6 | x6 | x6 | x6 | x6 | x6 | x6 | x6 | x6 | x6 | x6 | %272
 x6 | x6 | x6 | x6 | x6 | x6 | x6 | x6 | x6 | x6 | x6 | x6 | x6 | x6 | x6 | x6 | x6 | x6 | x6 | %291
 x6 | x6 | x6 | x6 | x6 | x6 | x6 | x6 | x6 | x6 | x6 | x6 | x6 | x6 | x6 | x6 | x6 | x6 | x6 | %310
 x6 | x6 | x6 | x6 | x6 | x6 | x6 | x6 | x6 | x6 | x6 | x6 | x6 | x6 | x6 | x6 | x6 | x6 | x6 | %329
 x6 | x6 | x6 | x6 | x6 | x6 | x6 | x6 | x6 | x6 |] %339
V:4
!f! [G,D]6 z2 | [G,D]4!p! G,4- | G,4 G,2 [G,D]2 | G2 z2 z2 (G,A,) |!p! [G,D]2 z2 [G,D]2 z2 | %5
!<(! E4!>(! E2 D2!<)!!>)! | C4 (B,2 A,2) | A,4 (G,2 A,2) | B,4 z4 | (A,4 _A,4) | G,4 z4 | z8 | z8 | %13
 (F^F G2) (=F^F G2) | _A,4 A,4- | A,2 z2 z4 |!pp! ^C4 C4 | ^C4 C4- | C2 z2 z4 | %19
 (^C2 =B,2 ^A,2) (^A2 | =A4) z2 [A,G]2 |!ff! (3DDD- (3DDD- (3DDD- (3DDD- | %22
 (3DDD- (3DDD- (3DDD- (3DDD- | (3DDD- (3DDD- (3DDD- (3DDD- | (3DDD- (3DDD- (3DDD- (3DDD | %25
 (3EEE- (3EEE- (3EEE (3[G,G][G,G][G,G] | (3B,B,B,- (3B,B,B,- (3B,B,B,- (3B,A,G, | %27
 (3DDD- (3DDD- (3DDD- (3DDD- | (3DDD- (3DDD- (3DDD- (3DDD | (=EF)(GA Bd)(cB) | F4 F4 | %31
!p! [_E^F]6 z2 | [DA] z [G,G] z z4 | z4!pp! =B,4 | z4 D4 | _D4 G,4 |"^cresc." ^D4 D4 | ^D4 D4 | %38
!f! ^G,2 G,z/G,/ G,2 G,z/G,/ | ^G,z/G,/ G, z z4 | ^G2 z2 (3(=E^D^C (3=B,^A,B,) | z8 | %42
!pp! (3^CCC (3^DDD (3=EEE (3^B,B,B, | (^C2 =E2 A2 ^c2) | =e4 e4 | =e4 e4 | ^e4 e4 | _e4 e4 | %48
 ^f4 f4 | TA4 D2 z2 |!pp! (3.G,.B,.A, (3.B,.C.^C (3.D.B,.D (3.G,.=E.^F | %51
 (3.G.B.G (3.d.B.d (3.G.cG- (3GAc | (3.B.c.A (3.G.A.B (3(eEe) (3(dDd) | (cBAG) (3z CC (3z DD | %54
 (3z (G,G) (3(FG,F) (3(=EG,E) (3(_EG,E) | (3(DG,D) (3(GG,)G- (3G(G,G) (F2 | %56
!<(! E2) (E2 B,2) (=B,C!<)! | D2) D4 D2 |!pp! (3GG,(G- (3GG,G) (3(FG,F- (3FG,F) | %59
 (3(=EG,E- (3EG,E) (3(_EG,E- (3EDC) | (3(DB,D G,2) E4 | (3(DB,D G,2) E4 |!ppp! !fermata![G,D]8 |] %63
[M:4/4]!f! !>!B,B,!>!DB, !>!FB,!>!EG | F!>!B- B/F/G/F/!<(! E/C/D/A,/ B,/D/E/G/!<)! | %65
!pp! F!>!B- B/F/G/F/!<(! E/C/D/A,/ B,/D/E/G/!<)! | F/G/A/B/ c/d/e/c/ =B/c/d/e/ f/g/_a/f/ | %67
 e/d/c/B/ A/B/c/^F/!<(! !>!B/B/B/F/ !>!d/d/d/B/!<)! | %68
!>(! ^F/F/F/B/!pp! _d/d/d/B/ _G/G/G/B/ d/d/d/B/!>)! | _A/A/A/F/ _D/_A,/D/F/ D/A,/F/A/ B/D/B/_d/ | %70
 _g/e/f/_d/ ._A.f B/c/d/e/ f/d/B/c/ | _g/e/f/_d/ ._A.d B/c/d/e/ f/d/B/c/ | %72
 f/e/_d/_A/ F/E/_D/F/ .B,.F.D.B | .F.=E.A,.E .A.E.^C.E |!f! .A.B F/G/A/B/ .A.A, D/C/B,/C/ | %75
 A,/G/F/=E/ D/E/F/E/ D/B,/C/G,/ A,/C/D/G,/ | A,/G/F/=E/ D/E/F/E/ D/B,/C/G,/ A,/C/D/G,/ | %77
 A,/B,/C/B,/ A,/C/^C/D/ E/_D/=C/B,/ _A,/D/C/E/ | _D2 DC B,2 B,_G/F/ | %79
 _G/F/_D/B,/ C/E/G/_A/ B/A/F/D/ E/G/B/c/ | _d/c/B/_A/ _G/A/B/_D/ E/F/G/E/ C/B,/_A,/=A,/ | %81
 B,2 _A,2 z2 B,_D | (E2 _D2) z2 _CE |!<(! =E2 ^G,A, =B,4!<)! |!>(! A,^G,^GA =B=B, ^F2!>)! | %85
 =Ez/D/Cz/=B,/ A,z/G,/ Cz/B,/ | A,/B,/C/D/!<(! ^D/=E/G/F/!>(! G/F/_E/=D/ C/B,/G,/A,/!<)!!>)! | %87
 !>!B,C!>!A,D !>!CD!>!B,G, | .^F.D.C.D A,C B,/A,/G,/^C/ | D^F- F/A,/B,/D/ G,G- G/B,/C/E/ | F6 F2 | %91
!ff! !>!B,B,!>!DB, !>!FB,!>!EG | F!>!B- B/F/G/F/ E/C/D/A,/ B,/D/E/G/ | %93
 F!>!B- B/F/G/F/ E/C/D/A,/ B,/D/E/G/ | F/G/A/B/ c/d/e/f/ g/d/e/B/ c/G/A/B/ | E2 z2 z4 | %96
 !>!_A4 !>!A4 | T_A4 TA4 |"^" TG4"^" TG4 | (F2 E2 D2 C2) | B,2 z2 z4 | EEGE BEGE | %102
 B(_DE)(D G)(EB)D | C(E_Ac) B,(_D_A,D) | G,/_A,/B,/C/ _D/=D/E/F/ G/_A/B/c/ _d/f/e/g/ | %105
 _a/c'/a/e/ c/_A/E/C/ _A, z z2 | z4 =B,2 z2 | A,2 z2 A,2 z2 | !>!DD!>!^FD !>!dD!>!^C^c | %109
 !>!=B=B,!>!A,A !>!BB,!>!A,A | G=B- B/G/D/=B,/ G,/B,/D/G/ B/d/g/=b/ | %111
!ff! g!>!=b- b/g/=e/=B/ G/B/=E/G/ B/e/g/b/ | c' z g z =e z z A | C z z2 z4 | z8 | %115
!p! g/=e/g/e/ c/e/g/c'/- c'/_a/c'/a/ f/c/a/c'/ | z2 _C2 z2 A,2 | =C2 z2 C2 z2 | B,2 z2 E2 z2 | %119
!f! !//!_A4 !//!A4 | .c._A.C.A F/D/E/B,/ C/A,/F/D/ | C z _A, z _G z _g z | _g2 _G2 G2 g2 | %123
 F2 z2 z4 |!p! (3B,B,B, (3=B,B,B, (3FF_B, (3EEG | F!>!B- B/F/G/F/ E/C/D/A,/ B,/D/E/G/ | %126
 F!>!B- B/F/G/F/ E/C/D/A,/ B,/D/E/G/ | F/G/A/B/ c/d/e/c/ =B/c/d/e/ f/g/_a/f/ | %128
 e/d/c/B/"^cresc." A/B/c/^F/ B/B/B/F/ d/d/d/B/ | ^F/F/F/B/ _d/d/d/B/ _G/G/G/B/ d/d/d/B/ | %130
 F/G/A/B/ c/d/e/f/ ^f/g/e/c/ A/=f/g/a/ |!ff! b2 fd BBeB | ceBF GABc | dfdB EFGB | ceBF GABc | %135
 dB F2 B,2 z2 | F4 z4 | B, z _GE F z D z |!ff! !fermata!B,8 ||[K:Eb][M:4/4]!p! E8 | D4 D4 | %141
 [CE]4 [CE]4 | [B,D]4 [B,D]4 | (_D2 CB,) A,4 | G,4 ([GB]2 [FA]2) | [EG]4 (ED C2) | %146
 (B,2 B2) (A2 A,2) |!<(! (_G2 B2 _d2 ef)!<)! | F4 F4 | =E4!<(! ([FA]2 [GB]2)!<)! | [Ac]4 [Ac]4 | %151
 (F4 G4) |!pp! E4 z4 | E4 z4 | [_CA]4 [B,A]4 | E4 E4 | d4 d4 | [ce]4 ([ce]4 | [Bd]4) [Bd]4 | %159
 (=A2 G2) (G2 F2) | ^c4 ([=Af]2 [G=e]2) | [Fd]4 ([=E^c]2 [Dd]2) | (^C6 D2) | (D2 =E>F) F4 | %164
 (F4 =E4) |!pp! (3D(D=E) TF2 (3E(EF)"^" TG2 | Az/(d/ (3=B^G=G) (3(FAd (3B^G=G) | %167
 (3F=AG Az/d/ (3(eAB (3cBA) | (3BB,C T_D2{CD} (3(Cc_d) e2 | B2 [AB]2 _G4 | %170
 (3(AGA) (3A(A,A- (3A)(GA) (3(AA,A) | (3(=A,^G,A,- (3A,G,)(A,- (3A,G,A,- (3A,G,A,) | %172
 (3(G,=A,B,) (B2 G2 =A2) | (3D(D=E)!<(! F2 (B2 A2)!<)! |!pp! (AD) B2 (AD) B2 | [D=A]4 z4 | %176
 z2 B,2 z2 B,2 | B,2 B,z/B,/ B,2 [B,=E]2 | [B,F]2 [B,F]2 [B,B]z/B,/ B,z/B,/ | %179
 (3(_CB,)(C- (3CB,)(C- (3CB,)(C- (3CB,C) | (B,2 B2) (GEcB) | (AGFE D2) (GF) | E4 (c2 BA) | %183
 [AB]4 [AB]4 | [Ec]4 [E_c]4 | [EB]4 [EB]4 | (_d2 cB) (A4 | G4) G2 F2 | A,4 ([B,E]2 [=B,D]2) | %189
!<(! C2 B,2 A,4!<)! | E4!<(! E4!<)! | [CE]4 [_CE]4 |!>(! [B,E]4 [B,D]2 z2!>)! | z4!pp! (E4 | %194
 _D4) C4 |!>(! (A,2 G,2) z4!>)! |!>(! A,4 F4!>)! |!pp! E4 E4 | !fermata!E8 || %199
[K:G][M:3/4]!f! [G,D]2 z4 | z6 | z6 | z6 | z6 | z6 | z6 | z6 | z6 | z6 | z6 | z6 | z6 | z6 | z6 | %214
 z6 | z6 | z6 | z6 | GA Bc B z | dB DB dB | GB cB AG | D6 | G,6 | A,6- | A,6 | D6 | _E6 | E6 | %228
 _E2 D2 G2 | G,6 | F6 | GA c_e cA |!pp! d_B =FD FB | AG =FG Ac | DD _B,C D=F | G,_A, _B,C D_E | %236
 _D_E D_B, CD | z2 G,2 z2 | z2 G,2 z2 | z2 =F2 z2 | z2 =F2 z2 | _B,2 z2 z2 | z6 | %243
!p! !>!_B,!<(!B, B,4!<)! | !>!G,G, G,2 z2 | G2 z2 C2 | D2 z2 G2 | c3 G G2 | _E3 C C2 | %249
 _AG =F_E DC |!<(! B,2 E2 =F2!<)! |!>(! G2 _E2 C2!>)! | _A,A, A,4 | =FF F4- | FE _ED CB, | %255
 _B,D GD G_B | dG _Bd _ed | cB AG FE | z2"^pizz." D2 z2 | z2 D2 z2 | z6 | z6 | z6 | %263
 z2 z2!f!"^arco" g2 | c'3 g g2 | _e3 c c2 | _ag =f_e dc | B2 _e2 =f2 | g2 _e2 c2 | _AA A4 | %270
 =ff f4 | Bd fg ab | c'b c'g c'b | _ba b=f ba | _ag a_e ag | _g_d _B_c dB | _G z z4 | ^G,2 z4 | %278
 F2 z4 | z6 | _E2 z2 C2 | _B,2 z2 B,_A, | _D2 z4 | _E2 z4 | _A,2 z4 | _A,2 z4 | _A,2 z4 | %287
 _D2 z2 _E2 | _A,6 | _A,6 | _C6 | _C6 | z6 | z6 |!p! a3 e e2 | ^c3 A A2 | a3 f f2 | F3 D D2 | E6- | %299
 E6 | A,6- | A,2 z4 | A,2 z2 A,2 |!ff! D2 z4 | z6 |!ff! !>!CC C4- | C6 | _B,6- | B,6 | _DD D4- | %310
 D6 | C2 z4 | _D2 z4 | _B,2 z4 | _E2 z4 | _A, z C z _E z | A, z B, z ^D z | _A, z _B, z =F z | %318
 G, z A, z E z | F2 z4 | G,2 z4 | E2 z4 | A,2 z4 | =F2 z4 | F2 z4 | D2 z4 | D2 z4 |!ff! cB c_B AG | %328
 F_E DC _B,A, | [G,DB]2 z4 | !>!G,6 | !>!G,6 | !>!G,6 | !>!G,6 | G,6 | !>![G,=F]6- | [G,F]6 | %337
 E2 A,2 D2 |!ff! !fermata![G,D]6 |] %339
V:5
 x8 | x8 | x8 | x8 | x8 | x8 | x8 | x8 | x8 | x8 | x8 | x8 | x8 | x8 | x8 | x8 | x8 | x8 | x8 | %19
 x8 | x8 | x8 | x8 | x8 | x8 | x8 | x8 | x8 | x8 | x8 | x8 | x8 | x8 | x8 | x8 | x8 | x8 | x8 | %38
 x8 | x8 | x8 | x8 | x8 | x8 | x8 | x8 | x8 | x8 | x8 | x8 | x8 | x8 | x8 | x8 | x8 | x8 | x8 | %57
 x8 | x8 | x8 | x8 | x8 | x8 |][M:4/4] x8 | x8 | x8 | x8 | x8 | x8 | x8 | x8 | x8 | x8 | x8 | x8 | %75
 x8 | x8 | x8 | x8 | x8 | x8 | x8 | x8 | x8 | x8 | x8 | x8 | x8 | x8 | x8 | x8 | x8 | x8 | x8 | %94
 x8 | x8 | x8 | x8 | x8 | x8 | x8 | x8 | x8 | x8 | x8 | x8 | x8 | x8 | x8 | x8 | x8 | x8 | x8 | %113
 x8 | x8 | x8 | x8 | x8 | x8 | x8 | x8 | x8 | x8 | x8 | x8 | x8 | x8 | x8 | x8 | x8 | x8 | x8 | %132
 x8 | x8 | x8 | x8 | x8 | x8 | x8 ||[K:Eb][M:4/4] x8 | x8 | x8 | x8 | x8 | x8 | x8 | x8 | x8 | x8 | %149
 x8 | x8 | x8 | x8 | x8 | x8 | x8 | x8 | x8 | x8 | x8 | =E2 =A2 x4 | x8 | x8 | G,4 (G,2 ^G,2) | %164
 =A,8 | x2 x2 D2 D2 | Dz/d/ x2 D2 x2 | D2 x2 x4 | x8 | x8 | x8 | x8 | x8 | x8 | x8 | x8 | x8 | x8 | %178
 x8 | x8 | x8 | x2 x2 x2 B,2 | x2 x2 E2 z2 | x8 | x8 | x8 | x8 | x4 G,4 | x8 | x8 | E2 D2 _D4 | %191
 x8 | x8 | x8 | x8 | x8 | x8 | x8 | x8 ||[K:G][M:3/4] x6 | x6 | x6 | x6 | x6 | x6 | x6 | x6 | x6 | %208
 x6 | x6 | x6 | x6 | x6 | x6 | x6 | x6 | x6 | x6 | x6 | x6 | x6 | x6 | x6 | x6 | x6 | x6 | x6 | %227
 x6 | x6 | x6 | x6 | x6 | x6 | x6 | x6 | x6 | x6 | x6 | x6 | x6 | x6 | x6 | x6 | x6 | x6 | x6 | %246
 x6 | x6 | x6 | x6 | x6 | x6 | x6 | x6 | x6 | x6 | x6 | x6 | x6 | x6 | x6 | x6 | x6 | x6 | x6 | %265
 x6 | x6 | x6 | x6 | x6 | x6 | x6 | x6 | x6 | x6 | x6 | x6 | x6 | x6 | x6 | x6 | x6 | x6 | x6 | %284
 x6 | x6 | x6 | x6 | x6 | x6 | x6 | x6 | x6 | x6 | x6 | x6 | x6 | x6 | x6 | x6 | x6 | x6 | x6 | %303
 x6 | x6 | x6 | x6 | x6 | x6 | x6 | x6 | x6 | x6 | x6 | x6 | x6 | x6 | x6 | x6 | x6 | x6 | x6 | %322
 x6 | x6 | x6 | x6 | x6 | x6 | x6 | x6 | x6 | x6 | x6 | x6 | x6 | x6 | x6 | x6 | x6 |] %339

